X:15
T:Whitehaven Volunteer, The
O:Cumbria
M:4/4
K:G
V:1
%P:A
d2>c2|\
B2B2 BcAB|G2G2 G2D2|G2B2 d2B2|edcB A2dc|\
B2B2 BcAB|G2G2 G2D2|E2c2 BAGF|G4 ::\
%P:B
d2>c2|\
B2d2 d2ef|g2d2 dedc|B2de d2B2|AGAB A2dc|\
B2d2 d2ef|gfga g2dc|B2G2 BAGF|G4 :|
